static/assets/images/icons/wind-rose.svg

<svg width="256" height="256" viewBox="0 0 256 256" fill="none" xmlns="http://www.w3.org/2000/svg">
<path fill-rule="evenodd" clip-rule="evenodd" d="M96.4475 96.57L112.337 49.084C115.891 38.4624 119.221 28.6263 121.92 20.6936C124.051 14.4315 132.847 14.4368 134.97 20.7015C137.662 28.6439 140.982 38.4938 144.526 49.1306L160.365 96.6625L207.896 112.501C218.521 116.041 228.362 119.359 236.3 122.051C242.567 124.175 242.567 132.975 236.3 135.1C228.362 137.791 218.521 141.109 207.896 144.649L160.365 160.488L144.467 208.194C140.927 218.816 137.601 228.543 134.895 236.358C132.738 242.587 123.999 242.532 121.892 236.285C119.176 228.231 115.808 218.23 112.22 207.544L96.4475 160.58L49.4839 144.808C38.7848 141.215 28.773 137.843 20.7148 135.126C14.4718 133.021 14.412 124.287 20.6351 122.124C28.4463 119.409 38.1715 116.07 48.7929 112.516L96.4475 96.57ZM75.9226 118.139L54.3446 125.42C52.8529 125.924 53.213 128.128 54.7873 128.13L81.6626 128.172C101.083 128.202 116.972 128.067 116.972 127.87C116.972 126.539 107.048 108.061 106.357 108.105C105.881 108.135 92.186 112.65 75.9226 118.139ZM107.927 150.329C107.927 150.041 112.233 147.628 117.494 144.967C122.756 142.305 127.296 140.112 127.583 140.091C127.869 140.072 128.08 155.944 128.05 175.365L128.008 202.193C128.006 203.769 125.799 204.127 125.298 202.633L117.962 180.764C112.443 164.312 107.927 150.616 107.927 150.329ZM128.854 81.785C128.825 101.206 128.961 117.095 129.157 117.095C130.053 117.095 148.977 107.285 148.977 106.822C148.977 106.534 144.462 92.8379 138.943 76.3865L131.607 54.5168C131.106 53.0228 128.899 53.3814 128.896 54.9572L128.854 81.785ZM150.205 149.1C149.742 149.1 139.932 130.175 139.932 129.28C139.932 129.084 155.822 128.947 175.242 128.977L202.069 129.019C203.645 129.022 204.004 131.229 202.51 131.73L180.64 139.066C164.189 144.585 150.493 149.1 150.205 149.1Z" fill="#040404"/>
<path d="M163.415 73.0712L192.271 59.8734C195.797 58.2604 199.426 61.9082 197.794 65.4262L184.539 94.0061L167.326 88.904L163.415 73.0712Z" fill="#040404"/>
<path d="M91.7492 73.0712L62.8934 59.8734C59.3669 58.2604 55.7384 61.9082 57.37 65.4262L70.6252 94.0061L87.8382 88.904L91.7492 73.0712Z" fill="#040404"/>
<path d="M91.7492 185.342L62.8934 198.54C59.3669 200.153 55.7384 196.505 57.37 192.987L70.6252 164.407L87.8382 169.509L91.7492 185.342Z" fill="#040404"/>
<path d="M163.24 185.342L192.095 198.54C195.622 200.153 199.25 196.505 197.619 192.987L184.364 164.407L167.15 169.509L163.24 185.342Z" fill="#040404"/>
</svg>

<svg xmlns="http://www.w3.org/2000/svg" fill="none" viewBox="0 0 256 256"><path fill="#040404" fill-rule="evenodd" d="m96.448 96.57 15.889-47.486a5973 5973 0 0 1 9.583-28.39c2.131-6.262 10.927-6.257 13.05.008a5863 5863 0 0 1 9.556 28.429l15.839 47.531 47.531 15.839a5670 5670 0 0 1 28.404 9.55c6.267 2.124 6.267 10.924 0 13.049a5784 5784 0 0 1-28.404 9.549l-47.531 15.839-15.898 47.706a2582 2582 0 0 1-9.572 28.164c-2.157 6.229-10.896 6.174-13.003-.073-2.716-8.054-6.084-18.055-9.672-28.741L96.448 160.58l-46.964-15.772c-10.7-3.593-20.711-6.965-28.77-9.682-6.242-2.105-6.302-10.839-.079-13.002a2586 2586 0 0 1 28.158-9.608zm-20.525 21.569-21.578 7.281c-1.492.504-1.132 2.708.442 2.71l26.876.042c19.42.03 35.309-.105 35.309-.302 0-1.331-9.924-19.809-10.615-19.765-.476.03-14.171 4.545-30.434 10.034m32.004 32.19c0-.288 4.306-2.701 9.567-5.362s9.802-4.855 10.089-4.876c.286-.019.497 15.853.467 35.274l-.042 26.828c-.002 1.576-2.209 1.934-2.71.44l-7.336-21.869c-5.519-16.452-10.035-30.148-10.035-30.435m20.927-68.544c-.029 19.421.107 35.31.303 35.31.896 0 19.82-9.81 19.82-10.273 0-.288-4.515-13.984-10.034-30.436l-7.336-21.87c-.501-1.493-2.708-1.135-2.711.441zm21.351 67.315c-.463 0-10.273-18.925-10.273-19.82 0-.196 15.89-.333 35.31-.303l26.827.042c1.576.003 1.935 2.21.441 2.711l-21.87 7.336c-16.451 5.519-30.147 10.034-30.435 10.034" clip-rule="evenodd"/><path fill="#040404" d="m163.415 73.071 28.856-13.198c3.526-1.613 7.155 2.035 5.523 5.553l-13.255 28.58-17.213-5.102zm-71.665 0L62.892 59.873c-3.526-1.613-7.155 2.035-5.523 5.553l13.255 28.58 17.213-5.102zm0 112.271L62.892 198.54c-3.526 1.613-7.155-2.035-5.523-5.553l13.255-28.58 17.213 5.102zm71.49 0 28.855 13.198c3.527 1.613 7.155-2.035 5.524-5.553l-13.255-28.58-17.214 5.102z"/></svg>
